X: 43630
T: Zamora
R: polka
M: 2/4
K: Dmajor
M:5/8
f e^d|:ee^d ed|ee^d ec|d B2-B2-|B2 f e^d|
ee^d ed|eec de|g f2-f2-|f2 f e^d|
ee^d ed|ee^d ec|d3 B2|Bcd cB|^A f2-f2|
cde dc|1 B f2-f2-|f2 f e^d:|2 B3-B2-|B2 f fg||
|:agf a^g|agf e^d|f e2-e2-|e2 e ef|
gfe gf|gfe dc|e d2-d2-|d2 d de|
fed fe|fed cB|d3 c2|F^Ac fg|f3 e2|
[1 fef ag|f3-f2-|f2 f fg:|2 dcB ^Ac|B3-B2||

